src/images/techStack/mongodb.svg

<svg width="500" height="500" viewBox="0 0 500 500" fill="none" xmlns="http://www.w3.org/2000/svg">
<rect width="500" height="500" fill="white"/>
<path d="M279.414 118.591C265.196 101.861 252.946 84.7514 250.459 81.2404C250.407 81.1662 250.338 81.1056 250.258 81.0637C250.178 81.0219 250.089 81 249.998 81C249.908 81 249.819 81.0219 249.739 81.0638C249.658 81.1056 249.59 81.1663 249.538 81.2404C247.051 84.7515 234.804 101.861 220.586 118.591C98.7275 273.388 239.82 377.827 239.82 377.827L240.964 378.619C242.033 394.778 244.691 418 244.691 418H255.309C255.309 418 257.955 394.878 259.03 378.724L260.181 377.827C260.181 377.827 401.272 273.388 279.414 118.591ZM250.001 375.557H249.999C249.999 375.557 243.674 370.177 241.967 367.482L241.952 367.192L249.602 198.663C249.607 198.561 249.651 198.464 249.725 198.394C249.799 198.323 249.898 198.284 250 198.284C250.103 198.284 250.201 198.323 250.275 198.394C250.349 198.464 250.393 198.561 250.398 198.663L258.048 367.192L258.033 367.481C256.327 370.176 250.001 375.557 250.001 375.557Z" fill="black"/>
</svg>

<svg width="500" height="500" fill="none" xmlns="http://www.w3.org/2000/svg"><path d="M279.414 118.591c-14.218-16.73-26.468-33.84-28.955-37.35a.567.567 0 0 0-.461-.241.559.559 0 0 0-.46.24c-2.487 3.511-14.734 20.621-28.952 37.351C98.727 273.388 239.82 377.827 239.82 377.827l1.144.792c1.069 16.159 3.727 39.381 3.727 39.381h10.618s2.646-23.122 3.721-39.276l1.151-.897s141.091-104.439 19.233-259.236Zm-29.413 256.966h-.002s-6.325-5.38-8.032-8.075l-.015-.29 7.65-168.529a.398.398 0 0 1 .796 0l7.65 168.529-.015.289c-1.706 2.695-8.032 8.076-8.032 8.076Z" fill="#000"/></svg>
